data/chains/V2/starknet/starknet.branded.svg

<svg width="24" height="24" viewBox="0 0 24 24" fill="none" xmlns="http://www.w3.org/2000/svg">
<path fill-rule="evenodd" clip-rule="evenodd" d="M2 11.9999C2 17.5227 6.47703 21.9998 11.9999 21.9998C17.5227 21.9998 22 17.5227 22 11.9999C22 6.47704 17.5227 2 11.9999 2C6.47703 2 2 6.47704 2 11.9999Z" fill="#0C0C4F"/>
<path fill-rule="evenodd" clip-rule="evenodd" d="M7.58807 9.64498L7.83492 8.88228C7.88507 8.72718 8.00752 8.60648 8.16316 8.55888L8.92955 8.32319C9.03565 8.29079 9.0365 8.14114 8.93125 8.10704L8.16836 7.86019C8.01352 7.80999 7.89282 7.68759 7.84497 7.53189L7.60957 6.76551C7.57717 6.65971 7.42752 6.65856 7.39337 6.7641L7.14653 7.52675C7.09638 7.68154 6.97393 7.80224 6.81826 7.85014L6.05189 8.08554C5.9458 8.11819 5.94467 8.26759 6.05017 8.30169L6.81309 8.54853C6.96792 8.59873 7.08863 8.72143 7.13648 8.87713L7.37187 9.64323C7.40427 9.74923 7.55392 9.75048 7.58807 9.64498Z" fill="#FAFAFA"/>
<path fill-rule="evenodd" clip-rule="evenodd" d="M19.7017 9.20108C19.3857 8.84778 18.8926 8.64883 18.4133 8.56728C17.9301 8.48893 17.4235 8.49618 16.9464 8.58093C15.9812 8.74423 15.1044 9.14388 14.3396 9.63691C13.9424 9.8789 13.6038 10.1588 13.2529 10.4439C13.0839 10.5881 12.9297 10.7418 12.7692 10.8931L12.3305 11.3295C11.8539 11.8278 11.3842 12.2815 10.9296 12.6576C10.4732 13.032 10.0466 13.3164 9.62607 13.5149C9.20584 13.7145 8.75619 13.8319 8.17015 13.8506C7.58926 13.8711 6.90194 13.7664 6.16677 13.5932C5.42766 13.421 4.65152 13.1754 3.78418 12.9641C4.08681 13.8036 4.54255 14.5456 5.12764 15.2238C5.71961 15.8902 6.45878 16.4977 7.40836 16.8972C8.3442 17.3056 9.52032 17.4521 10.6199 17.2309C11.7225 17.0187 12.6902 16.5084 13.4723 15.9185C14.2564 15.3223 14.8908 14.6433 15.4255 13.9374C15.5731 13.7424 15.6512 13.6332 15.7581 13.4807L16.0534 13.0434C16.2586 12.7727 16.4454 12.4647 16.6485 12.1966C17.0467 11.6353 17.4393 11.0745 17.8956 10.5579C18.1252 10.2958 18.3673 10.0452 18.6531 9.80428C18.7957 9.68666 18.9498 9.57166 19.1203 9.46802C19.2936 9.35622 19.4764 9.26872 19.7017 9.20108Z" fill="url(#paint0_linear_376_10625)"/>
<path fill-rule="evenodd" clip-rule="evenodd" d="M19.7017 9.20093C19.3622 8.34444 18.7313 7.6233 17.8843 7.0913C17.0426 6.56517 15.8734 6.29666 14.7149 6.52555C14.1425 6.63626 13.588 6.84936 13.1014 7.13315C12.617 7.41585 12.1829 7.7561 11.8072 8.12119C11.6195 8.30429 11.4493 8.49534 11.2802 8.68748L10.8417 9.24646L10.1644 10.1463C9.3011 11.3041 8.37141 12.661 6.84575 13.063C5.34798 13.4577 4.69832 13.1083 3.78418 12.964C3.95133 13.3955 4.15844 13.8143 4.43912 14.183C4.71458 14.5592 5.03994 14.9124 5.44445 15.2152C5.64887 15.3607 5.86469 15.5042 6.10439 15.6259C6.343 15.7437 6.60032 15.8472 6.87498 15.9251C7.42132 16.0748 8.03636 16.1273 8.63191 16.0467C9.22775 15.9672 9.79719 15.7784 10.2951 15.5277C10.7964 15.2792 11.2333 14.9767 11.6234 14.6574C12.3988 14.0136 13.0019 13.3021 13.5114 12.5828C13.7676 12.2234 14.0001 11.857 14.2154 11.4905L14.4685 11.0542C14.5459 10.9267 14.6243 10.7984 14.7038 10.6789C15.0246 10.1988 15.3384 9.81376 15.7195 9.52476C16.0954 9.22838 16.6187 9.00937 17.3181 8.95847C18.0146 8.90702 18.8186 9.00233 19.7017 9.20093Z" fill="#FAFAFA"/>
<path fill-rule="evenodd" clip-rule="evenodd" d="M15.9346 16.317C15.9346 16.946 16.4448 17.4562 17.0738 17.4562C17.7029 17.4562 18.2125 16.946 18.2125 16.317C18.2125 15.688 17.7029 15.1777 17.0738 15.1777C16.4448 15.1777 15.9346 15.688 15.9346 16.317Z" fill="#EC796B"/>
<defs>
<linearGradient id="paint0_linear_376_10625" x1="21.8925" y1="2.88008" x2="-16.4521" y2="13.936" gradientUnits="userSpaceOnUse">
<stop stop-color="#EC796B"/>
<stop offset="1" stop-color="#D672EF"/>
</linearGradient>
</defs>
</svg>

<svg xmlns="http://www.w3.org/2000/svg" width="24" height="24" fill="none" viewBox="0 0 24 24">
    <path fill="#0C0C4F" fill-rule="evenodd" d="M2 12c0 5.523 4.477 10 10 10s10-4.477 10-10S17.523 2 12 2 2 6.477 2 12" clip-rule="evenodd"/>
    <path fill="#FAFAFA" fill-rule="evenodd" d="m7.588 9.645.247-.763a.5.5 0 0 1 .328-.323l.767-.236c.106-.032.107-.182.001-.216l-.763-.247a.5.5 0 0 1-.323-.328l-.235-.766a.114.114 0 0 0-.217-.002l-.246.763a.5.5 0 0 1-.329.323l-.766.236a.113.113 0 0 0-.002.216l.763.247a.5.5 0 0 1 .323.328l.236.766a.113.113 0 0 0 .216.002" clip-rule="evenodd"/>
    <path fill="url(#starknet__a)" fill-rule="evenodd" d="M19.702 9.201c-.316-.353-.81-.552-1.289-.634a4.4 4.4 0 0 0-1.467.014c-.965.163-1.842.563-2.606 1.056-.398.242-.736.522-1.087.807-.17.144-.323.298-.484.45l-.438.435a17 17 0 0 1-1.401 1.329c-.457.374-.883.658-1.304.857-.42.2-.87.317-1.456.336-.58.02-1.268-.085-2.003-.258-.74-.172-1.515-.418-2.383-.629.303.84.759 1.582 1.344 2.26.592.666 1.33 1.274 2.28 1.673a5.5 5.5 0 0 0 3.212.334c1.103-.212 2.07-.723 2.852-1.313a10.2 10.2 0 0 0 1.954-1.98c.147-.196.225-.305.332-.457l.295-.438c.206-.27.392-.578.595-.846.399-.562.791-1.122 1.248-1.64.23-.261.471-.512.757-.753.143-.117.297-.232.467-.336.174-.112.356-.2.582-.267" clip-rule="evenodd"/>
    <path fill="#FAFAFA" fill-rule="evenodd" d="M19.702 9.2c-.34-.856-.97-1.577-1.818-2.109a4.47 4.47 0 0 0-3.17-.565 5.2 5.2 0 0 0-1.613.607 6.8 6.8 0 0 0-1.294.988 10 10 0 0 0-.527.566l-.438.56-.678.9c-.863 1.157-1.793 2.514-3.318 2.916-1.498.395-2.148.045-3.062-.099.167.431.374.85.655 1.219.276.376.6.73 1.005 1.032.205.146.42.29.66.41.239.119.496.222.771.3.546.15 1.161.202 1.757.122a5.3 5.3 0 0 0 1.663-.52 7 7 0 0 0 1.328-.87 10.6 10.6 0 0 0 1.888-2.074q.384-.541.704-1.092l.254-.437c.077-.127.155-.256.235-.375.32-.48.634-.865 1.015-1.154.376-.297.9-.516 1.6-.567.696-.051 1.5.044 2.383.243" clip-rule="evenodd"/>
    <path fill="#EC796B" fill-rule="evenodd" d="M15.935 16.317a1.14 1.14 0 1 0 2.278 0 1.14 1.14 0 0 0-2.278 0" clip-rule="evenodd"/>
    <defs>
        <linearGradient id="starknet__a" x1="21.892" x2="-16.452" y1="2.88" y2="13.936" gradientUnits="userSpaceOnUse">
            <stop stop-color="#EC796B"/>
            <stop offset="1" stop-color="#D672EF"/>
        </linearGradient>
    </defs>
</svg>
